X:226
T: ICH WUENSCHT ES WAERE NACHT
N: E0814
O: Europa, Mitteleuropa, Deutschland
R: Kilt - Lied
M: 3/4
L: 1/8
K: Bb
F2 | B2D2F2 | B4
dB | c3dec | d6 |
cdc2F2 | B3cd2 |
cdc2F2 | B3cd2 |
ecd2c2 | B4

@@@ Tune index: 4539
